modules/zondicons/icons/edit-crop.svg

<?xml version="1.0" encoding="UTF-8" standalone="no"?>
<svg width="20px" height="20px" viewBox="0 0 20 20" version="1.1" xmlns="http://www.w3.org/2000/svg" xmlns:xlink="http://www.w3.org/1999/xlink">
    <!-- Generator: Sketch 3.7.2 (28276) - http://www.bohemiancoding.com/sketch -->
    <title>edit-crop</title>
    <desc>Created with Sketch.</desc>
    <defs></defs>
    <g id="Page-1" stroke="none" stroke-width="1" fill="none" fill-rule="evenodd">
        <g id="edit-crop" fill="#000000">
            <path d="M14,16 L14,20 L16,20 L16,16 L20,16 L20,14 L6,14 L6,0 L4,0 L4,4 L0,4 L0,6 L4,6 L4,14.0059397 C4,15.1054862 4.8927712,16 5.99406028,16 L14,16 Z M14,13 L14,6 L7,6 L7,4 L14.0059397,4 C15.1072288,4 16,4.89451376 16,5.99406028 L16,13 L14,13 Z" id="Combined-Shape"></path>
        </g>
    </g>
</svg>

<svg width="20" height="20" viewBox="0 0 20 20" xmlns="http://www.w3.org/2000/svg"><path d="M14 16v4h2v-4h4v-2H6V0H4v4H0v2h4v8.006C4 15.106 4.893 16 5.994 16H14zm0-3V6H7V4h7.006C15.107 4 16 4.895 16 5.994V13h-2z" fill="#000" fill-rule="evenodd"/></svg>
